X:1
T:Title
%%score { 1 | 2 }
L:1/8
M:6/8
K:F
V:1 treble nm="Grand Piano"
V:2 bass 
V:1
 z3 z2[Q:1/4=87] [DF] | [DF][DF][DF] FFF | [DF]3 [DB]2 [DFB] | [CFA][CGB][CAc] [CGB][CFA][B,EG] | %4
[M:3/8] [A,F]3 | [C_EF]3 |[M:3/4] [B,DF][B,DF] [B,DF][A,_EF] [A,EF][A,EF] | [B,DF]3 [DFB]2 [Fd] | %8
 cG BA GA |[M:5/8] [B,DB]-[B,DB]- [B,DB]3 |[M:1/8] [DFB] |[M:3/4] [CFA][CGB] [CAc][EG] [EB]A | %12
 F3 C2 C | FG AA GF |[M:5/8] [Ec]-[Ec]- [Ec]3 |[M:1/8] [Ec] |[M:3/4] cB AA GF | %17
 [B,DF]3 [DFB]2 [Fd] | [Fc][EB] [FA][FA] [FA][EG] | F3 F3 | [DF][DF] [DF]F FF | [DF]3 [DB]2 [DFB] | %22
 [CFA][CGB] [CAc][CGB] [CFA][B,EG] |[M:3/8] [A,F]3 | [C_EF]3 | %25
[M:3/4] [B,DF][B,DF] [B,DF][A,_EF] [A,EF][A,EF] | [B,DF]3 [DFB]2 [Fd] | cG BA GA | %28
[M:13/8] [DB]-[DB]- [DB]3 z z z z z z z2 |] %29
V:2
 z3 z2 [B,,B,] | [B,,B,][B,,B,][B,,B,] [F,A,_E][F,A,E][F,A,E] | [B,,B,]3 [B,,F,]2 B,, | %3
 F,F,F, C,C,C, |[M:3/8] F,3 | F,3 |[M:3/4] B,,B,, B,,F, F,F, | B,,3 B,,2 [B,,B,] | %8
 [_E,G,_E][E,B,E] [G,B,E][F,CE] [F,CE][F,CE] |[M:5/8] B,,-B,,- B,,3 |[M:1/8] B, | %11
[M:3/4] F,F, F,C [C,G,][C,B,C] | [F,A,C]3 [F,A,]2 [F,A,] | %13
 [F,A,C][F,B,C] [F,CF][F,CF] [E,B,C][D,=B,] |[M:5/8] [C,C]-[C,C]- [C,C]3 |[M:1/8] [C,G,] | %16
[M:3/4] [F,A,F][F,DF] [F,CF][F,CF] [F,B,E][F,A,_E] | B,,3 B,,2 [B,,B,] | %18
 [C,A,][C,G,] [C,C][C,C] [C,C][C,B,] | [F,A,]3 [F,C_E]3 | %20
 [B,,B,][B,,B,] [B,,B,][F,A,_E] [F,A,E][F,A,E] | [B,,B,]3 [B,,F,]2 B,, | F,F, F,C, C,C, | %23
[M:3/8] F,3 | F,3 |[M:3/4] B,,B,, B,,F, F,F, | B,,3 B,,2 [B,,B,] | %27
 [_E,G,_E][E,B,E] [G,B,E][F,CE] [F,CE][F,CE] |[M:13/8] [B,,B,]-[B,,B,]- [B,,B,]3 z z z z z z z2 |] %29

